icons/desktop/16/tree-16.svg

<svg width="16" height="16" viewBox="0 0 16 16" fill="none" xmlns="http://www.w3.org/2000/svg">
<path fill-rule="evenodd" clip-rule="evenodd" d="M8 0C9.88055 0 11.5138 1.05466 12.6494 2.46289C13.7858 3.87234 14.5 5.72309 14.5 7.5C14.5 10.8365 11.9867 13.5832 8.75 13.9551V15.25C8.75 15.6642 8.41421 16 8 16C7.58579 16 7.25 15.6642 7.25 15.25V13.9551C4.01326 13.5832 1.5 10.8365 1.5 7.5C1.5 5.72309 2.21418 3.87234 3.35059 2.46289C4.48617 1.05466 6.11945 0 8 0ZM8 1.5C6.7048 1.5 5.46297 2.23182 4.51758 3.4043C3.57298 4.57585 3 6.10091 3 7.5C3 10.0068 4.84417 12.0815 7.25 12.4434V10.3096L5.21973 8.28125C4.92673 7.98825 4.92673 7.51272 5.21973 7.21973C5.51272 6.92673 5.98825 6.92673 6.28125 7.21973L7.25 8.1875V5.75C7.25 5.33579 7.58579 5 8 5C8.41421 5 8.75 5.33579 8.75 5.75V12.4434C11.1558 12.0815 13 10.0068 13 7.5C13 6.10091 12.427 4.57585 11.4824 3.4043C10.537 2.23182 9.2952 1.5 8 1.5Z" fill="black"/>
</svg>

<!-- This Source Code Form is subject to the terms of the Mozilla Public
   - License, v. 2.0. If a copy of the MPL was not distributed with this
   - file, You can obtain one at http://mozilla.org/MPL/2.0/. -->
<svg xmlns="http://www.w3.org/2000/svg" width="16" height="16" fill="context-fill" fill-opacity="context-fill-opacity" viewBox="0 0 16 16">
    <path fill-rule="evenodd" d="M8 0c1.88 0 3.514 1.055 4.65 2.463 1.136 1.41 1.85 3.26 1.85 5.037a6.5 6.5 0 0 1-5.75 6.455v1.295a.75.75 0 0 1-1.5 0v-1.295A6.5 6.5 0 0 1 1.5 7.5c0-1.777.714-3.628 1.85-5.037S6.12 0 8 0m0 1.5c-1.295 0-2.537.732-3.482 1.904S3 6.101 3 7.5a5 5 0 0 0 4.25 4.943V10.31L5.22 8.28a.75.75 0 0 1 1.06-1.06l.969.968V5.75a.75.75 0 0 1 1.5 0v6.693A5 5 0 0 0 13 7.5c0-1.4-.573-2.924-1.518-4.096S9.295 1.5 8 1.5" clip-rule="evenodd" />
</svg>
